svg/filled/arrow-right.svg

<svg width="24" height="24" viewBox="0 0 24 24" fill="none" xmlns="http://www.w3.org/2000/svg">
<path fill-rule="evenodd" clip-rule="evenodd" d="M13.4826 4.4692C13.7757 4.17657 14.2506 4.17699 14.5432 4.47014L21.5307 11.4701C21.823 11.7629 21.823 12.2371 21.5307 12.5299L14.5432 19.5299C14.2506 19.823 13.7757 19.8234 13.4826 19.5308C13.1894 19.2382 13.189 18.7633 13.4816 18.4701L19.1905 12.7511L3.00053 12.7625C2.58631 12.7628 2.25029 12.4272 2.25 12.013C2.24971 11.5988 2.58526 11.2628 2.99947 11.2625L19.1927 11.2511L13.4816 5.52986C13.189 5.2367 13.1894 4.76183 13.4826 4.4692Z" fill="black"/>
</svg>

<svg xmlns="http://www.w3.org/2000/svg" viewBox="0 0 24 24" fill="currentColor">
  <path fill-rule="evenodd" d="M13.483 4.47a.75.75 0 011.06 0l6.988 7a.75.75 0 010 1.06l-6.988 7a.75.75 0 01-1.061-1.06l5.709-5.719L3 12.762a.75.75 0 01-.002-1.5l16.194-.01-5.711-5.722a.75.75 0 010-1.06z" clip-rule="evenodd"/>
</svg>
